svg/600/sharp/admin_meds-fill.svg

<svg xmlns="http://www.w3.org/2000/svg" width="48" height="48" viewBox="0 -960 960 960"><path d="M481.13-480ZM320.435-323.139q32.804 32.574 76.065 33.074 43.261.5 76.065-32.065L534-383.565 382.435-535.13l-62 61.434q-31 31.24-31 75.561 0 44.322 31 74.996Zm319.13-316.557Q607-671.261 563.217-671.978q-43.782-.718-75.782 31.848l-63 63L576-425.565l64.13-63.565q31.435-31.435 30.935-75-.5-43.566-31.5-75.566ZM105.869-105.869v-748.827h270.087q8.392-35 37.087-57.5 28.696-22.5 66.957-22.5 38.261 0 66.957 22.5 28.695 22.5 37.087 57.5h270.652v748.827H105.869ZM480-793.609q15.96 0 27.176-11.215Q518.391-816.04 518.391-832q0-15.96-11.215-27.176Q495.96-870.391 480-870.391q-15.96 0-27.176 11.215Q441.609-847.96 441.609-832q0 15.96 11.215 27.176Q464.04-793.609 480-793.609Z"/></svg>

<svg xmlns="http://www.w3.org/2000/svg" width="48" height="48" viewBox="0 -960 960 960"><path d="M481.13-480Zm-160.7 156.86q32.81 32.57 76.07 33.07 43.26.5 76.07-32.06L534-383.57 382.43-535.13l-62 61.43q-31 31.24-31 75.57 0 44.32 31 74.99ZM639.57-639.7q-32.57-31.56-76.35-32.28-43.79-.72-75.79 31.85l-63 63L576-425.57l64.13-63.56q31.44-31.44 30.94-75-.5-43.57-31.5-75.57Zm-533.7 533.83V-854.7h270.09q8.39-35 37.08-57.5 28.7-22.5 66.96-22.5 38.26 0 66.96 22.5 28.69 22.5 37.08 57.5H854.7v748.83H105.87ZM480-793.61q15.96 0 27.18-11.21 11.21-11.22 11.21-27.18 0-15.96-11.21-27.18-11.22-11.21-27.18-11.21-15.96 0-27.18 11.21-11.21 11.22-11.21 27.18 0 15.96 11.21 27.18 11.22 11.21 27.18 11.21Z"/></svg>
